!!!!SEGMENT: pl-wtm--r-278-m_moniuszko-stanislaw--sub-tuum-praesidium.krn
!!!cenid: 18xx:1669
!!!COM: Moniuszko, Stanisław
!!!COM-rismID:
!!!CDT: 1819/05/05-1872/06/04
!!!CNT: Polish
!!!OTL: Sub tuum praesidium
!!!PDT: 1857
!!!AGN: Secular
!!!SMS-siglum: PL-Wtm
!!!SMS-shelfmark: R 278/M
!!!SMS-shelfwork: W
!!!SMS-variant:
!!!SMS-altvar:
!!!NIFC-rismSourceID: 1001099299
!!!NIFC-islandoraID:
!!!URL-pdf-islandora:
!!!URL-scan:
!!!ONB-nifc:
!!!AIN: 1 forte 1 soprn
!!!key:
**kern	**kern	**dynam	**kern	**text	**dynam
*part2	*part2	*part2	*part1	*part1	*part1
*staff3	*staff2	*	*staff1	*staff1	*
*Iforte	*Iempty	*	*Isoprn	*	*
*I"Fortepian	*	*	*I"Mezzo soprano albo baryton	*	*
*I'pf	*I'pf	*	*I'Mezzo-S (Bariton)	*	*
*clefF4	*clefG2	*	*clefF4	*	*
*k[b-e-]	*k[b-e-]	*	*k[b-e-]	*	*
*B-:	*B-:	*	*B-:	*	*
*M12/8	*M12/8	*	*M12/8	*	*
=1	=1	=1	=1	=1	=1
*^	*	*	*	*	*
!	!	!LO:TX:t=P:p(iano)=p.:global:problem	!	!LO:TX:a:i:t=andante.	!	!
!	!	!	!LO:DY:b:rj:t=p.	!	!	!
4rGG	4.ryy	8fL 8F</	p	2.r	.	.
.	.	8f 8F</	.	.	.	.
8rGG	.	8fJ 8F</	.	.	.	.
*v	*v	*	*	*	*	*
*	*tremolo	*	*	*	*
*^	*	*	*	*	*
4.c 4.A/	4.E-\	8fL 8F</	.	.	.	.
.	.	8f 8F</	.	.	.	.
.	.	8fJ 8F</	.	.	.	.
4.B- 4.G/	4.D\	8fL 8F</	.	4r	.	.
.	.	8f 8F</	.	.	.	.
.	.	8fJ 8F</	.	8r	.	.
*v	*v	*	*	*	*	*
*	*Xtremolo	*	*	*	*
*^	*	*	*	*	*
4.e- 4.A/	4.C\	4.f 4.F</	.	4.F\	Sub	.
*v	*v	*	*	*	*	*
=2	=2	=2	=2	=2	=2
*	*tremolo	*	*	*	*
*	*	*	*2\right	*	*
[>1.BB- 1.BBB-	8fL 8d 8B-/	.	2.d\	Tu-	.
.	8f 8d 8B-/	.	.	.	.
.	8f 8d 8B-/	.	.	.	.
.	8f 8d 8B-/	.	.	.	.
.	8f 8d 8B-/	.	.	.	.
.	8fJ 8d 8B-/	.	.	.	.
*	*Xtremolo	*	*	*	*
*	*tremolo	*	*	*	*
.	8f#XL 8d 8B-/	.	4.B-\	-um	.
.	8f# 8d 8B-/	.	.	.	.
.	8f# 8d 8B-/	.	.	.	.
.	8f# 8d 8B-/	.	4.F#X\	prae-	.
.	8f# 8d 8B-/	.	.	.	.
.	8f#J 8d 8B-/	.	.	.	.
*	*Xtremolo	*	*	*	*
=3	=3	=3	=3	=3	=3
*	*tremolo	*	*	*	*
4BB-] 4BBB-/	8g-XL 8e- 8A/	.	[>4.A\	-si-	.
.	8g- 8e- 8A/	.	.	.	.
8r	8g-J 8e- 8A/	.	.	.	.
*	*Xtremolo	*	*	*	*
*	*tremolo	*	*	*	*
(>4.BB-/	8gnL 8e- 8B-/	.	4A\]	.	.
.	8g 8e- 8B-/	.	.	.	.
.	8gJ 8e- 8B-/	.	8G\	-di-	.
*	*Xtremolo	*	*	*	*
*	*tremolo	*	*	*	*
4.D\	8fL 8d 8B-/	.	4F\	-um	.
.	8f 8d 8B-/	.	.	.	.
.	8f 8d 8B-/	.	8r	.	.
4.F\)	8f 8d 8B-/	.	4r	.	.
.	8f 8d 8B-/	.	.	.	.
.	8fJ 8d 8B-/	.	8F\	con-	.
*	*Xtremolo	*	*	*	*
=4	=4	=4	=4	=4	=4
*2\right	*2\right	*	*	*	*
*	*tremolo	*	*	*	*
2.E-\	8fL 8c 8A/	.	4.F\	-fu-	.
.	8f 8c 8A/	.	.	.	.
.	8f 8c 8A/	.	.	.	.
.	8f 8c 8A/	.	4G\	-gi-	.
.	8f 8c 8A/	.	.	.	.
.	8fJ 8c 8A/	.	8A\	-mus	.
*	*Xtremolo	*	*	*	*
*	*tremolo	*	*	*	*
4.D\	8fL 8B-/	.	4.B-\	San-	.
.	8f 8B-/	.	.	.	.
.	8fJ 8B-/	.	.	.	.
*	*Xtremolo	*	*	*	*
*	*tremolo	*	*	*	*
4.GG#X/	8fL 8d 8Bn/	.	4.Bn\	-cta	.
.	8f 8d 8B/	.	.	.	.
.	8fJ 8d 8B/	.	.	.	.
*	*Xtremolo	*	*	*	*
!!LO:LB:g=original
=5	=5	=5	=5	=5	=5
*^	*	*	*	*	*
!LO:TX:b:t=P:problem=mixed beam	!	!	!	!	!	!
8AA/L	4.rGGyy	4.ff/ 4.f/	.	[>4.c\	De-	.
8e-\ 8c\	.	.	.	.	.	.
8e-\J 8c\	.	.	.	.	.	.
*v	*v	*	*	*	*	*
*tremolo	*	*	*	*	*
*^	*	*	*	*	*
8e-L 8c/	2.F\	4gg 4g\	.	4c\]	.	.
8e- 8c/	.	.	.	.	.	.
8e-J 8c/	.	8aa 8a\	.	16d\LL	-i	.
.	.	.	.	16c\JJ	.	.
*	*	*Xtremolo	*	*	*	*
*	*	*tremolo	*	*	*	*
8dL 8B-/	.	4.bb- 4.b-\	.	(>4B-\	Ge-	.
8d 8B-/	.	.	.	.	.	.
8dJ 8B-/	.	.	.	8A\	.	.
8e-L 8F\	4.ryy	4.ccc 4.cc\	.	4G\)	.	.
8e- 8G\	.	.	.	.	.	.
8e-J 8A\	.	.	.	8F\	-ni-	.
*v	*v	*	*	*	*	*
*Xtremolo	*	*	*	*	*
=6	=6	=6	=6	=6	=6
!LO:TX:t=P:problem=mixed beam	!	!	!	!	!
8BB-/L	(>2.ddd 2.dd\	.	4F\	-trix	.
8d\ 8B-\	.	.	.	.	.
8d\J 8B-\	.	.	8r	.	.
*tremolo	*	*	*	*	*
8dL 8B-\	.	.	4r	.	.
8d 8B-\	.	.	.	.	.
8dJ 8B-\	.	.	8r	.	.
*	*tremolo	*	*	*	*
8dL 8B-\	4.bb- 4.b-\	.	4r	.	.
8d 8B-\	.	.	.	.	.
8d 8B-\	.	.	8r	.	.
*	*Xtremolo	*	*	*	*
8d 8B-\	4.ff#X 4.f#X/	.	(>4.B-\	nos-	.
8d 8B-\	.	.	.	.	.
8dJ 8B-\	.	.	.	.	.
=7	=7	=7	=7	=7	=7
*	*tremolo	*	*	*	*
8e-L 8A\	[>4.aa [<4.a/	.	[<4.A\	.	.
8e- 8A\	.	.	.	.	.
8e- 8A\	.	.	.	.	.
*	*Xtremolo	*	*	*	*
8e- 8A\	4aa] 4a/]	.	4A\]	.	.
8e- 8A\	.	.	.	.	.
8e-J 8A\	8gg 8g/)	.	8G\)	tras,	.
*	*Xtremolo	*	*	*	*
4d 4B-\	8ffL 8f/	.	4F\	de-	.
.	8f 8d/	.	.	.	.
8r	8gJ 8f 8d/	.	8G\	-pre-	.
8d\L	8aL 8f/	.	4A\	-ca-	.
8c\	8a 8e-/	.	.	.	.
8B-\J	8b-J 8d/	.	8B-\	-ti-	.
=8	=8	=8	=8	=8	=8
*^	*	*	*	*	*
*	*	*tremolo	*	*	*	*
4.A\	2.ryy	8ccL 8f/	.	[>4.c\	-o-	.
.	.	8cc 8f/	.	.	.	.
.	.	8cc 8f/	.	.	.	.
4.c 4.A-X\	.	8cc 8f/	.	4c\]	.	.
.	.	8cc 8f/	.	.	.	.
.	.	8ccJ 8f/	.	8c\	-nes	.
2.Bn/	4G\	8ddL 8f/	.	[>4.d\	ne	.
.	.	8dd 8f/	.	.	.	.
.	8F\	8ddJ 8f/	.	.	.	.
.	4E-\	8ddL 8g/	.	4d\]	.	.
.	.	8dd 8g/	.	.	.	.
.	8D\	8ddJ 8g/	.	8d\	des-	.
*v	*v	*	*	*	*	*
!!LO:LB:g=original
=9	=9	=9	=9	=9	=9
8c 8C\	[>4.eee- [<4.ee-\	.	[>4.e-\	-pi-	.
*Xtremolo	*	*	*	*	*
8e-L 8c\	.	.	.	.	.
8e-J 8c\	.	.	.	.	.
*tremolo	*	*	*	*	*
8e-L 8c\	4eee-] 4ee-\]	.	4e-\]	.	.
8e- 8c\	.	.	.	.	.
8e-J 8c\	8ddd 8dd\	.	8d\	-ci-	.
*	*Xtremolo	*	*	*	*
*	*tremolo	*	*	*	*
8e-L 8c\	4ccc 4cc\	.	4c\	-as;	.
8e- 8c\	.	.	.	.	.
8e- 8c\	8bb- 8b-\	.	8r	.	.
8e- 8c\	4aa 4a\	.	[>4.c\	sed	.
8e- 8c\	.	.	.	.	.
8e-J 8c\	8gg 8g\	.	.	.	.
*	*Xtremolo	*	*	*	*
=10	=10	=10	=10	=10	=10
[>4.D\	8ff#X 8f#X\	.	2.c\]	.	.
.	8f#L 8d/	.	.	.	.
.	8f#J 8d/	.	.	.	.
*	*tremolo	*	*	*	*
2.D] 2.DD/	8f#L 8d/	.	.	.	.
.	8f# 8d/	.	.	.	.
.	8f#J 8d/	.	.	.	.
*	*Xtremolo	*	*	*	*
.	.	.	16qqd/LL	.	.
*	*tremolo	*	*	*	*
.	.	.	16qqc/JJ	.	.
.	8gL 8en/	.	4.B-\	a	.
.	8g 8e/	.	.	.	.
.	8gJ 8e/	.	.	.	.
*	*Xtremolo	*	*	*	*
*	*tremolo	*	*	*	*
4.C/	8aL 8f#/	.	4.A\	pe-	.
.	8a 8f#/	.	.	.	.
.	8aJ 8f#/	.	.	.	.
*	*Xtremolo	*	*	*	*
=11	=11	=11	=11	=11	=11
*	*tremolo	*	*	*	*
2.BB-/	8aL 8f#X 8d/	.	[>4.d\	-ri-	.
.	8a 8f# 8d/	.	.	.	.
.	8a 8f# 8d/	.	.	.	.
.	8a 8f# 8d/	.	4d\]	.	.
.	8a 8f# 8d/	.	.	.	.
.	8aJ 8f# 8d/	.	8G\	-cu-	.
*	*Xtremolo	*	*	*	*
*	*tremolo	*	*	*	*
2.E-\	8gL 8e- 8B-/	.	(>4.G\	-lis	.
.	8g 8e- 8B-/	.	.	.	.
.	8g 8e- 8B-/	.	.	.	.
.	8g 8e- 8B-/	.	4A\	.	.
.	8g 8e- 8B-/	.	.	.	.
.	8gJ 8e- 8B-/	.	8B-\)	.	.
*	*Xtremolo	*	*	*	*
!!LO:LB:g=original
=12	=12	=12	=12	=12	=12
*	*tremolo	*	*	*	*
2.AA/	8gL 8e- 8c/	.	[>4.c\	cunc-	.
.	8g 8e- 8c/	.	.	.	.
.	8g 8e- 8c/	.	.	.	.
.	8g 8e- 8c/	.	4c\]	.	.
.	8g 8e- 8c/	.	.	.	.
.	8gJ 8e- 8c/	.	8c\	-tis	.
*	*Xtremolo	*	*	*	*
*	*tremolo	*	*	*	*
2.D\	8f#XL 8d 8A</	.	(>4d\	li-	.
.	8f# 8d 8A</	.	.	.	.
.	8f#J 8d 8A</	.	8c\)	.	.
*	*Xtremolo	*	*	*	*
.	8gL 8en 8B-</	.	4B-\	-be-	.
.	8g 8e 8B-</	.	.	.	.
.	8aJ 8f# 8c</	.	8A\	-ra	.
=13	=13	=13	=13	=13	=13
*Xtremolo	*	*	*	*	*
!LO:TX:t=P:problem=mixed beam	!	!	!	!	!
8GG\L	8b- 8g 8B-</	.	4B-\	nos	.
8g> 8d> 8B-\	8ree	.	.	.	.
8g>J 8d> 8B-\	8ree	.	8r	.	.
*tremolo	*	*	*	*	*
8g>L 8d> 8B-\	4ree	.	2.B-\	sem-	.
8g> 8d> 8B-\	.	.	.	.	.
8g>J 8d> 8B-\	8ddd 8dd/	.	.	.	.
*	*Xtremolo	*	*	*	*
*	*tremolo	*	*	*	*
8g>L 8d> 8B-\	4eee- 4ee-/	.	.	.	.
8g> 8d> 8B-\	.	.	.	.	.
8g> 8d> 8B-\	8ddd 8dd/	.	.	.	.
8g> 8d> 8B-\	4ccc 4cc/	.	4.B-\	-per	.
8g> 8d> 8B-\	.	.	.	.	.
!	!	!	!	!	!LO:DY:a:t=p.
8gJ 8d 8B-\	8bb- 8b-/	.	.	.	p
*	*Xtremolo	*	*	*	*
=14	=14	=14	=14	=14	=14
[>1.A-X	8bb- 8b-/	.	2.B-\	Vir-	.
.	8fL 8d 8B-/	.	.	.	.
.	8fJ 8d 8B-/	.	.	.	.
*	*tremolo	*	*	*	*
.	8fL 8d 8B-/	.	.	.	.
.	8f 8d 8B-/	.	.	.	.
.	8fJ 8d 8B-/	.	.	.	.
*	*Xtremolo	*	*	*	*
*	*tremolo	*	*	*	*
.	8fL 8d 8B-/	.	4.c\	-go	.
.	8f 8d 8B-/	.	.	.	.
.	8f 8d 8B-/	.	.	.	.
.	8f 8d 8B-/	.	4.d\	glo-	.
.	8f 8d 8B-/	.	.	.	.
.	8fJ 8d 8B-/	.	.	.	.
*	*Xtremolo	*	*	*	*
=15	=15	=15	=15	=15	=15
*	*tremolo	*	*	*	*
4.A-X\]	8b-L 8e- 8B-/	.	[>2.e-\	-rio-	.
.	8b- 8e- 8B-/	.	.	.	.
.	8b- 8e- 8B-/	.	.	.	.
4.G\	8b- 8e- 8B-/	.	.	.	.
.	8b- 8e- 8B-/	.	.	.	.
.	8b- 8e- 8B-/	.	.	.	.
4.E-\	8b- 8e- 8B-/	.	4.e-\]	.	.
.	8b- 8e- 8B-/	.	.	.	.
.	8b- 8e- 8B-/	.	.	.	.
4.F\	8b- 8e- 8B-/	.	4.e-\	-sa	.
.	8b- 8e- 8B-/	.	.	.	.
.	8b-J 8e- 8B-/	.	.	.	.
*	*Xtremolo	*	*	*	*
!!LO:LB:g=original
=16	=16	=16	=16	=16	=16
*	*tremolo	*	*	*	*
1.G-X	8a-XL 8e- 8c/	.	[>4.e-\	Vir-	.
.	8a- 8e- 8c/	.	.	.	.
.	8a- 8e- 8c/	.	.	.	.
.	8a- 8e- 8c/	.	4e-\]	.	.
.	8a- 8e- 8c/	.	.	.	.
.	8a- 8e- 8c/	.	8A-X\	-go	.
.	8a- 8e- 8c/	.	4.B-\	be-	.
.	8a- 8e- 8c/	.	.	.	.
.	8a- 8e- 8c/	.	.	.	.
.	8a- 8e- 8c/	.	4.c\	-ne-	.
.	8a- 8e- 8c/	.	.	.	.
.	8a-J 8e- 8c/	.	.	.	.
*	*Xtremolo	*	*	*	*
=17	=17	=17	=17	=17	=17
*	*tremolo	*	*	*	*
2.F\	8a-XL 8d-X/	.	[>2.c#X\	-dic-	.
.	8a- 8d-/	.	.	.	.
!	!	!LO:HP:b	!	!	!
.	8a- 8d-/	<	.	.	.
!	!	!	!	!	!LO:HP:a
.	8a- 8d-/	.	.	.	<
.	8a- 8d-/	.	.	.	.
.	8a-J 8d-/	.	.	.	.
*	*Xtremolo	*	*	*	*
*	*tremolo	*	*	*	*
4.F#X\	8anL 8f#X 8c#X/	.	4.c#\]	.	.
.	8a 8f# 8c#/	.	.	.	.
.	8aJ 8f# 8c#/	.	.	.	.
*	*Xtremolo	*	*	*	*
*	*tremolo	*	*	*	*
4.En\	8gL 8c# 8A/	.	4.c#\	-ta:	.
.	8g 8c# 8A/	[	.	.	[
.	8gJ 8c# 8A/	.	.	.	.
*	*Xtremolo	*	*	*	*
=18	=18	=18	=18	=18	=18
*	*tremolo	*	*	*	*
!	!	!LO:DY:b:rj:t=fp.	!	!	!
1.D 1.DD	8f#XL 8c 8A/	fp	2.d\	Do-	.
.	8f# 8c 8A/	.	.	.	.
.	8f# 8c 8A/	.	.	.	.
.	8f# 8c 8A/	.	.	.	.
.	8f# 8c 8A/	.	.	.	.
.	8f#J 8c 8A/	.	.	.	.
*	*Xtremolo	*	*	*	*
*	*tremolo	*	*	*	*
.	8gL 8d 8B-/	.	4.B-\	-mi-	.
.	8g 8d 8B-/	.	.	.	.
.	8gJ 8d 8B-/	.	.	.	.
*	*Xtremolo	*	*	*	*
*	*tremolo	*	*	*	*
.	8aL 8f#X 8c/	.	4.F#X\	-na	.
.	8a 8f# 8c/	.	.	.	.
.	8aJ 8f# 8c/	.	.	.	.
*	*Xtremolo	*	*	*	*
=19	=19	=19	=19	=19	=19
*	*tremolo	*	*	*	*
4E- 4EE-/	8aL 8f#X 8c/	.	(>[>4.A\	nos-	.
.	8a 8f# 8c/	.	.	.	.
8r	8aJ 8f# 8c/	.	.	.	.
*	*Xtremolo	*	*	*	*
*	*tremolo	*	*	*	*
(<4C/	8gL 8e- 8c/	.	4A\]	.	.
.	8g 8e- 8c/	.	.	.	.
8BB-/	8gJ 8e- 8c/	.	8G\)	.	.
*	*Xtremolo	*	*	*	*
!LO:TX:t=P:problem=mixed beam	!	!	!	!	!
8AA/L)	8f# 8e- 8c/	.	4F\	-tra	.
8c\	8f#L 8e- 8c'/	.	.	.	.
!	!	!LO:HP:b	!	!	!
8B-\J	8gJ 8e- 8c'/	<	8r	.	.
8A\L	8aL 8e- 8c'/	.	4r	.	.
8G\	8b- 8e-'/	.	.	.	.
8F\J	8ccJ 8a 8e-'/	[[	8r	.	.
!!LO:PB:g=original
=20	=20	=20	=20	=20	=20
*	*tremolo	*	*	*	*
*^	*	*	*	*	*
4.F/	1.BB-	8b-L 8d/	.	[>4.d\	ad-	.
.	.	8b- 8d/	.	.	.	.
.	.	8b- 8d/	.	.	.	.
4.F#X/	.	8b- 8d/	.	4d\]	.	.
.	.	8b- 8d/	.	.	.	.
.	.	8b-J 8d/	.	8d\	-vo-	.
*	*	*Xtremolo	*	*	*	*
*	*	*tremolo	*	*	*	*
4.G/	.	8b-L 8d/	.	(>8e-\L	-ca-	.
.	.	8b- 8d/	.	8d\	.	.
.	.	8b-J 8d/	.	8A\J	.	.
*	*	*Xtremolo	*	*	*	*
4.ryy	.	8fL 8e- 8A</	.	8c\L	.	.
.	.	8f 8d 8B-</	.	8B-\	.	.
.	.	8fJ 8d/	.	8G\J)	-ta	.
*v	*v	*	*	*	*	*
=21	=21	=21	=21	=21	=21
*	*tremolo	*	*	*	*
2.FF/	8e-L 8c 8A</	.	(>[<4.A\	nos-	.
.	8e- 8c 8A</	.	.	.	.
.	8e-J 8c 8A</	.	.	.	.
*	*Xtremolo	*	*	*	*
*	*tremolo	*	*	*	*
.	8e-L 8B-< 8G</	.	8.A\L]	.	.
.	8e- 8B-< 8G</	.	.	.	.
.	.	.	16G\L	.	.
.	8e-J 8B-< 8G</	.	16A\	.	.
.	.	.	16G\JJ)	.	.
*Xtremolo	*	*	*	*	*
8F\L	8e-L 8A</	.	4F\	-tra	.
8c 8A\	8d/	.	.	.	.
8cJ 8A\	8e-/J	.	8r	.	.
*tremolo	*	*	*	*	*
8cL 8A\	(<8g-X/L	.	4r	.	.
8c 8A\	8f/)	.	.	.	.
8cJ 8A\	8e-/J	.	8r	.	.
*Xtremolo	*	*	*	*	*
=22	=22	=22	=22	=22	=22
!LO:TX:t=P:problem=mixed beam	!	!	!	!	!
.	8qd-X/	.	.	.	.
8BB-/L	[>4.ff\	.	(>4.F\	Con-	.
8d\ 8B-\	.	.	.	.	.
8d\J 8B-\	.	.	.	.	.
*tremolo	*	*	*	*	*
8dL 8B-\	4ff\]	.	4G\)	.	.
8d 8B-\	.	.	.	.	.
8dJ 8B-\	8ee-\	.	8A\	-so-	.
*	*Xtremolo	*	*	*	*
*	*tremolo	*	*	*	*
8dL 8B-\	4ee-\	.	4.B-\	-la-	.
8d 8B-\	.	.	.	.	.
8d 8B-\	8dd-X\	.	.	.	.
8d 8B-\	4cc\	.	4.d-X\	-trix	.
8d 8B-\	.	.	.	.	.
8dJ 8B-\	8b-\	.	.	.	.
*	*Xtremolo	*	*	*	*
!!LO:LB:g=original
=23	=23	=23	=23	=23	=23
*	*^	*	*	*	*
4.BB-/	1.cc	8re	.	2.f\	nos-	.
.	.	8fL 8c\	.	.	.	.
.	.	8fJ 8c\	.	.	.	.
*	*	*tremolo	*	*	*	*
4AA-X/	.	8fL 8c\	.	.	.	.
.	.	8f 8c\	.	.	.	.
8GG/	.	8fJ 8c\	.	.	.	.
*	*Xtremolo	*	*	*	*	*
*	*tremolo	*	*	*	*	*
4AA-/	.	8fL 8c\	.	4c\	-tra	.
.	.	8f 8c\	.	.	.	.
8r	.	8f 8c\	.	8r	.	.
4AA-/	.	8f 8c\	.	4r	.	.
.	.	8f 8c\	.	.	.	.
8r	.	8fJ 8c\	.	8r	.	.
*Xtremolo	*	*	*	*	*	*
*	*v	*v	*	*	*	*
=24	=24	=24	=24	=24	=24
*^	*	*	*	*	*
!LO:TX:t=P:problem=mixed beam	!	!	!	!	!	!
8GG/L	4.ryy	(4.bb- 4.b-\	.	[>4.e-\	me-	.
8e-\ 8B-\	.	.	.	.	.	.
8e-\J 8B-\	.	.	.	.	.	.
8e-L 8B-/	4.G\	4ccc 4cc\	.	4e-\]	.	.
8e- 8B-/	.	.	.	.	.	.
8e-J 8B-/	.	8ddd-X 8dd-X\	.	8d-X\	.	.
*v	*v	*	*	*	*	*
*tremolo	*	*	*	*	*
*^	*	*	*	*	*
8e-L 8B-/	4.G-X\	4eee- 4ee-\)	.	4.c\	-dia-	.
8e- 8B-/	.	.	.	.	.	.
8e-J 8B-/	.	8r	.	.	.	.
*v	*v	*	*	*	*	*
*	*Xtremolo	*	*	*	*
*	*8va	*	*	*	*
*	*tremolo	*	*	*	*
*^	*	*	*	*	*
8e-L 8B-/	4.E-\	4.ggg-X 4.gg\	.	4.B-\	-trix	.
8e- 8B-/	.	.	.	.	.	.
8e-J 8B-/	.	.	.	.	.	.
=25	=25	=25	=25	=25	=25	=25
8r	[<2.E-\	(>[>4.ggg-X [<4.gg-X\	.	(>4A\	nos-	.
*Xtremolo	*	*	*	*	*	*
8cL 8A/	.	.	.	.	.	.
8cJ 8A/	.	.	.	8B-\)	.	.
*	*	*Xtremolo	*	*	*	*
*tremolo	*	*	*	*	*	*
8cL 8A/	.	4ggg-] 4gg-\]	.	4c\	-tra,	.
8c 8A/	.	.	.	.	.	.
8cJ 8A/	.	16eee-\LL	.	8r	.	.
*	*	*Xtremolo	*	*	*	*
.	.	16ccc\JJ	.	.	.	.
8c 8A/	(>4E-\]	8aan/)	.	4r	.	.
*	*	*X8va	*	*	*	*
!	!	!LO:TX:a:i:t=loco.	!	!	!	!
8ryy	.	8fL 8F</	.	.	.	.
2ryy	16F\LL	8fJ 8F</	.	8r	.	.
.	16E-\JJ	.	.	.	.	.
.	4D-X\	8fL 8F</	.	4F\	Tu-	.
.	.	8f 8F</	.	.	.	.
.	8C\)	8fJ 8F</	.	8F\	-o	.
*v	*v	*	*	*	*	*
!!LO:LB:g=original
=26	=26	=26	=26	=26	=26
*	*^	*	*	*	*
*Xtremolo	*	*	*	*	*	*
!	!	!	!	!	!	!LO:DY:b:rj
8BB-L 8BBB-/	4f/	1.d-X 1.B-	.	4.d-X\	Fi-	p
8BB-/	.	.	.	.	.	.
8BB-/J	8r	.	.	.	.	.
*rep	*	*	*	*	*	*
8BB-L 8BBB-/	4f/	.	.	4d-\	-lio	.
8BB-/	.	.	.	.	.	.
8BB-/J	8f/	.	.	8d-\	nos	.
*Xrep	*	*	*	*	*	*
*rep	*	*	*	*	*	*
8BB-L 8BBB-/	4f/	.	.	4.d-\	re-	.
8BB-/	.	.	.	.	.	.
8BB-/J	8r	.	.	.	.	.
*Xrep	*	*	*	*	*	*
*rep	*	*	*	*	*	*
8BB-L 8BBB-/	[>4.f/	.	.	4.d-\	-con-	.
8BB-/	.	.	.	.	.	.
8BB-/J	.	.	.	.	.	.
*Xrep	*	*	*	*	*	*
=27	=27	=27	=27	=27	=27	=27
*^	*	*	*	*	*	*
1.F	(>8BB-L 8BBB-\	4f/]	1.c	.	(>[<4.c\	-ci-	.
.	8AA 8AAA\)	.	.	.	.	.	.
.	8AA\J	8r	.	.	.	.	.
.	8AAL 8AAA/	4f/	.	.	4c\]	.	.
.	8AA/	.	.	.	.	.	.
.	8AA/J	8f/	.	.	8d-X\)	-li-	.
.	8AAL 8AAA/	4f/	.	.	4c\	-a,	.
.	8AA/	.	.	.	.	.	.
.	8AA/J	8r	.	.	8r	.	.
.	8AAL 8AAA/	4f/	.	.	4F\	Tu-	.
.	8AA/	.	.	.	.	.	.
.	8AA/J	8r	.	.	8F\	-o	.
*	*	*v	*v	*	*	*	*
=28	=28	=28	=28	=28	=28	=28
1.d 1.Bn	8AA-XL 8AAA-X/	4f/	.	4.c-X\	Fi-	.
.	8AA-/	.	.	.	.	.
.	8AA-/J	8r	.	.	.	.
*	*rep	*	*	*	*	*
.	8AA-L 8AAA-/	4f/	.	4c-\	-lio	.
.	8AA-/	.	.	.	.	.
.	8AA-/J	8f/	.	8c-\	nos	.
*	*Xrep	*	*	*	*	*
*	*rep	*	*	*	*	*
.	8AA-L 8AAA-/	4f/	.	4.c-\	re-	.
.	8AA-/	.	.	.	.	.
.	8AA-/J	8r	.	.	.	.
*	*Xrep	*	*	*	*	*
*	*rep	*	*	*	*	*
.	8AA-L 8AAA-/	4f/	.	4.c-\	-con-	.
.	8AA-/	.	.	.	.	.
.	8AA-/J	8r	.	.	.	.
*	*Xrep	*	*	*	*	*
*v	*v	*	*	*	*	*
=29	=29	=29	=29	=29	=29
*	*^	*	*	*	*
(<8AA-XL 8AAA-X/	4ree	(>2.f\	.	(>[<4.B-\	-ci-	.
8GG 8GGG/)	.	.	.	.	.	.
8GG/J	8ree	.	.	.	.	.
!	!	!	!	!LO:TX:a:t=P:problem=pod tą nutą pierwotnie sylaba -mi-; skreślona przez głównego skryptora	!	!
8GGL 8GGG/	4b- 4B-/	.	.	4B-\]	.	.
8GG/	.	.	.	.	.	.
8GG/J	8b- 8B-/	.	.	8c-X\)	-li-	.
!	!	!	!	!LO:TX:a:t=P:problem=pod tą nutą pierwotnie sylaba -da; "d" skreślone przez głównego skryptora	!	!
8GGL 8GGG/	4b- 4B-/	4e-/)	.	4B-\	-a	.
8GG/	.	.	.	.	.	.
8GG/J	8r	2ryy	.	8r	.	.
8GGL 8GGG/	4b- 4B-/	.	.	4B-\	Tu-	.
8GG/	.	.	.	.	.	.
8GG/J	8r	.	.	8B-\	-o	.
*	*v	*v	*	*	*	*
!!LO:LB:g=original
=30	=30	=30	=30	=30	=30
*	*ped	*	*	*	*
!LO:TX:t=P:problem=mixed beam	!	!	!	!	!
8GG-X/L	4r	.	[>4.e-\	Fi-	.
8e-\ 8B-\	.	.	.	.	.
8e-\J 8B-\	8r	.	.	.	.
*tremolo	*	*	*	*	*
8e-L 8B-\	4b-/	.	4e-\]	.	.
8e- 8B-\	.	.	.	.	.
8e-J 8B-\	8b-/	.	8d-X\	-lio	.
*	*	*	*	*	*
*	*	*	*	*	*
8e-L 8B-\	4b-/	.	4.c\	nos	.
8e- 8B-\	.	.	.	.	.
8e- 8B-\	8r	.	.	.	.
8e- 8B-\	4b-/	.	4B-\	re-	.
8e- 8B-\	.	.	.	.	.
8e-J 8B-\	8r	.	8B-\	-co-	.
*Xtremolo	*	*	*	*	*
=31	=31	=31	=31	=31	=31
*^	*^	*	*	*	*
8r	1.F	[>4.dd-X/	4r	.	2.d-X\	-men-	.
8fL 8d-X 8B-/	.	.	.	.	.	.	.
8fJ 8d- 8B-/	.	.	8re	.	.	.	.
*	*	*v	*v	*	*	*	*
*tremolo	*	*	*	*	*	*
*	*	*^	*	*	*	*
8fL 8d- 8B-/	.	4dd-/]	4b-\	.	.	.	.
8f 8d- 8B-/	.	.	.	.	.	.	.
8fJ 8d- 8B-/	.	8cc/	8b-\	.	.	.	.
*	*	*v	*v	*	*	*	*
*	*	*Xtremolo	*	*	*	*
*	*	*tremolo	*	*	*	*
*	*	*^	*	*	*	*
8fL 8d- 8B-/	.	4b-/	4b-\	.	4B-\	-da	.
8f 8d- 8B-/	.	.	.	.	.	.	.
8f 8d- 8B-/	.	8r	8r	.	8r	.	.
8f 8d- 8B-/	.	4.b-/	4.b-\	.	4B-\	Tu-	.
8f 8d- 8B-/	.	.	.	.	.	.	.
8fJ 8d- 8B-/	.	.	.	.	8B-\	-o	.
*v	*v	*	*	*	*	*	*
=32	=32	=32	=32	=32	=32	=32
1.G-X 1.BB-	4b-/	8r	.	[<4.e-\	Fi-	.
.	.	8e-L 8B-\	.	.	.	.
*	*v	*v	*	*	*	*
*	*Xtremolo	*	*	*	*
*	*^	*	*	*	*
.	8r	8e-J 8B-\	.	.	.	.
*	*v	*v	*	*	*	*
*	*	*	*	*	*
*	*^	*	*	*	*
*	*	*tremolo	*	*	*	*
.	4b-/	8e-L 8B-\	.	4e-\]	.	.
.	.	8e- 8B-\	.	.	.	.
.	8b-/	8e-J 8B-\	.	8d-X\	-lio	.
*	*v	*v	*	*	*	*
*	*Xtremolo	*	*	*	*
*	*tremolo	*	*	*	*
*	*^	*	*	*	*
.	.	.	.	8qd-/	.	.
.	4b-/	8e-L 8B-\	.	8c\L	nos	.
.	.	8e- 8B-\	.	8B-\	.	.
.	8r	8e-J 8B-\	.	8c\J	.	.
*	*v	*v	*	*	*	*
*	*Xtremolo	*	*	*	*
*	*tremolo	*	*	*	*
*	*^	*	*	*	*
!	!LO:N:vis=4	!	!	!	!	!
.	4.b-/	8e-L 8B-\	.	4d-\	re-	.
.	.	8e- 8B-\	.	.	.	.
.	.	8e-J 8B-\	.	8B-\	-pre-	.
*Xtremolo	*	*	*	*	*	*
*	*v	*v	*	*	*	*
!!LO:LB:g=original
=33	=33	=33	=33	=33	=33
!LO:TX:t=P:problem=mixed beam	!	!	!	!	!
*	*ped	*	*	*	*
8C/L 8CC/	[>4.gg-X [<4.an\	??? sf	(>4A\	-sen-	.
8e-\ 8c\ 8A\	.	.	.	.	.
8e-\J 8c\ 8A\	.	.	8B-\)	.	.
*tremolo	*	*	*	*	*
8e-L 8c 8A\	4gg-] 4a\]	.	4c\	-ta	.
8e- 8c 8A\	.	.	.	.	.
8e-J 8c 8A\	16ee-\LL	.	8r	.	.
*	*Xtremolo	*	*	*	*
.	16cc\JJ	.	.	.	.
8e- 8c 8A\	8a/L	.	4r	.	.
8r	8a 8e- 8c/	.	.	.	.
8r	8aJ 8e- 8c/	.	8r	.	.
[>4.C [<4.CC/	8aL 8e- 8c/	.	4r	.	.
.	8e- 8c/	.	.	.	.
.	8e-J 8c 8A</	.	8r	.	.
=34	=34	=34	=34	=34	=34
*	*tremolo	*	*	*	*
*	*	*	*2\left	*	*
1.C_> 1.CC]	8dL 8A< 8F#X</	.	2.d\	Do-	.
.	8d 8A< 8F#</	.	.	.	.
.	8d 8A< 8F#</	.	.	.	.
.	8d 8A< 8F#</	.	.	.	.
.	8d 8A< 8F#</	.	.	.	.
.	8dJ 8A< 8F#</	.	.	.	.
*	*Xtremolo	*	*	*	*
*	*tremolo	*	*	*	*
!	!	!	!LO:TX:a:t=P::problem=nuta poprawiana przez głównego skryptora; pierwotnie były nuty&colon; 4d\ i 8d\	!	!
.	8e-L 8d 8B-</	.	4.B-\	-mi-	.
.	8e- 8d 8B-</	.	.	.	.
.	8e-J 8d 8B-</	.	.	.	.
*	*Xtremolo	*	*	*	*
*	*tremolo	*	*	*	*
.	8f#XL 8c 8A</	.	4.F#X\	-na	.
.	8f# 8c 8A</	.	.	.	.
.	8f#J 8c 8A</	.	.	.	.
*	*Xtremolo	*	*	*	*
=35	=35	=35	=35	=35	=35
*	*tremolo	*	*	*	*
(>4.C\_>	8f#XL 8e- 8A</	.	(>[>4.A\	nos-	.
.	8f# 8e- 8A</	.	.	.	.
.	8f#J 8e- 8A</	.	.	.	.
*	*Xtremolo	*	*	*	*
*	*tremolo	*	*	*	*
4C\]	8gL 8e- 8B-</	.	4A\]	.	.
.	8g 8e- 8B-</	.	.	.	.
8BB-\	8gJ 8e- 8B-</	.	8G\)	.	.
*	*Xtremolo	*	*	*	*
8AA\)	8f# 8e- 8c/	.	4F\	-tra	.
8F\L	8f#L 8c 8A'/	.	.	.	.
!	!	!	!LO:HP:b	!	!
8En\J	8gJ 8c 8B-'/	<	8r	.	.
8E-X\L	8aL 8f# 8c'/	.	4r	.	.
8D\	8b- 8f# 8B-'/	.	.	.	.
8C\J	8ccJ 8a 8e-'/	[[	8r	.	.
!!LO:PB:g=original
=36	=36	=36	=36	=36	=36
*	*	*	*	*	*
*	*^	*	*	*	*
*	*	*tremolo	*	*	*	*
4BB- 4BBB-/	2.dd/	8b-L 8f 8d\	f	[>4.d\	ad-	.
.	.	8b- 8f 8d\	.	.	.	.
8r	.	8b-J 8f 8d\	.	.	.	.
*	*Xtremolo	*	*	*	*	*
*	*tremolo	*	*	*	*	*
!	!	!	!LO:HP:b	!	!	!
4BB- 4BBB-/	.	8b-L 8f#X 8d\	<	4d\]	.	.
.	.	8b- 8f# 8d\	.	.	.	.
8r	.	8b-J 8f# 8d\	.	8d\	-vo-	.
*	*Xtremolo	*	*	*	*	*
4BB- 4BBB-/	(<8ffL 8cc 8a/	4ryy	[	(>8f\L	-ca-	.
.	8ee- 8b- 8g/)	.	.	8e-\	.	.
!	!LO:SIC:v:s=8fn	!	!	!	!	!
!	!	!	!LO:HP:b	!	!	!
8r	8ddJ 8a 8f#/	2ryy	>	8d\J	.	.
4BB- 4BBB-/	8ccL 8g 8e-/	.	]]	8c\L	.	.
!	!LO:SIC:v:s=8fn	!	!	!	!	!
.	8b- 8f# 8d/	.	.	8B-\)J	.	.
8r	8aJ 8e- 8c/	.	.	8A\	-ta	.
*	*v	*v	*	*	*	*
=37	=37	=37	=37	=37	=37
*	*tremolo	*	*	*	*
*	*^	*	*	*	*
*	*	*tremolo	*	*	*	*
4FF/	4.g/	8e-L 8B-\	.	(>4.G\	nos-	.
.	.	8e- 8B-\	.	.	.	.
8r	.	8e-J 8B-\	.	.	.	.
*	*Xtremolo	*	*	*	*	*
*	*v	*v	*	*	*	*
*	*tremolo	*	*	*	*
*	*^	*	*	*	*
8C\L	4.cc/	8g-L 8e- 8B-\	.	4.c\	.	.
8C\	.	8g- 8e- 8B-\	.	.	.	.
8C\J	.	8g-J 8e- 8B-\	.	.	.	.
*	*Xtremolo	*	*	*	*	*
*	*v	*v	*	*	*	*
*	*tremolo	*	*	*	*
*	*^	*	*	*	*
4F\	8f/L 8e-/L 8A/	4.ryy	.	4F\)	-tra	.
.	8f/ 8e- 8A\	.	.	.	.	.
8r	8f/J 8e-J 8A\	.	.	8r	.	.
*	*v	*v	*	*	*	*
*	*Xtremolo	*	*	*	*
*	*tremolo	*	*	*	*
*	*^	*	*	*	*
*tremolo	*	*	*	*	*	*
4.ryy	4ree	8fL 8e-\ 8A<\	.	4r	.	.
.	.	8f 8e-\ 8A<\	.	.	.	.
.	8ree	8fJ 8e-\ 8A<\	.	8r	.	.
*Xtremolo	*	*	*	*	*	*
*	*v	*v	*	*	*	*
*	*Xtremolo	*	*	*	*
=38	=38	=38	=38	=38	=38
*tremolo	*	*	*	*	*
*^	*	*	*	*	*
8fL 8B-/	4.A-X\	[>4.bb- [<4.b-\	.	[>4.B-\	Con-	.
8f 8B-/	.	.	.	.	.	.
8fJ 8B-/	.	.	.	.	.	.
*v	*v	*	*	*	*	*
*	*tremolo	*	*	*	*
*^	*	*	*	*	*
8e-L 8B-/	4.G\	4bb-] 4b-\]	.	4B-\]	.	.
8e- 8B-/	.	.	.	.	.	.
*	*	*Xtremolo	*	*	*	*
8e-J 8B-/	.	8eee- 8ee-\	.	8B-\	-so-	.
*v	*v	*	*	*	*	*
*	*Xtremolo	*	*	*	*
*	*tremolo	*	*	*	*
*^	*	*	*	*	*
8dL 8A-X/	4.F\	4ddd 4dd/	.	4.B-\	-la-	.
8d 8A-/	.	.	.	.	.	.
8dJ 8A-/	.	8ccc 8cc/	.	.	.	.
*v	*v	*	*	*	*	*
*Xtremolo	*	*	*	*	*
*^	*	*	*	*	*
!LO:TX:t=P:problem=mixed beam	!	!	!	!	!	!
8BB-/L	8ryy	4bb- 4b-/	.	4.B-\	-trix	.
8d\ 8B-\	4ryy	.	.	.	.	.
8d\J 8B-\	.	8aa-X 8a-X/	.	.	.	.
!!LO:LB:g=original
=39	=39	=39	=39	=39	=39	=39
8E-/L	4E-\	[>4.gg [<4.g\	.	[>2.B-\	nos-	.
8e- 8B-/	.	.	.	.	.	.
8e-J 8B-/	8rGG	.	.	.	.	.
8BB-/L	4BB-\	4gg] 4g\]	.	.	.	.
8B- 8G/	.	.	.	.	.	.
8B-J 8F/	8rGG	8aa 8a-X\	.	.	.	.
8E-/L	4E-\	4.bb- 4.b-\	.	4.B-\]	.	.
!	!	!LO:TX:b:i:t=cres. cen. do.:problem=dynamics with dot extensions	!LO:HP:b:i:t=cres. cen. do.:ext=ut	!	!	!
8B- 8G/	.	.	<	.	.	.
8B-J 8G/	8rGG	.	.	.	.	.
8D-X/L	4D-\	4.bbn 4.bn\	.	4.Bn\	-tra	.
8Bn 8F/	.	.	.	.	.	.
8BJ 8F/	8ryy	.	.	.	.	.
=40	=40	=40	=40	=40	=40	=40
8C\L	4.ryy	[>/4.ccc [<4.cc/	.	[>4.c\	Con-	.
8c\ 8B-\	.	.	.	.	.	.
8c\J 8B-\	.	.	.	.	.	.
!LO:TX:t=P:problem=mixed beam	!	!	!	!	!	!
8A/L	4.A\	4ccc] 4cc\]	.	4c\]	.	.
8f>\ 8c>\	.	.	.	.	.	.
8f>\J 8c>\	.	8fff 8ff\	.	8c\	-so-	.
!LO:TX:t=P:problem=mixed beam	!	!	!	!	!	!
8G/L	4.G\	4eeen 4een\	.	4.c\	-la-	.
8en>\ 8B->\	.	.	.	.	.	.
8e>\J 8B->\	.	8ddd 8dd\	.	.	.	.
8E-/L	4.En\	4ccc 4cc/	.	4.c\	-trix	.
8c 8G/	.	.	.	.	.	.
8cJ 8G/	.	8bb- 8b-/	.	.	.	.
=41	=41	=41	=41	=41	=41	=41
8F/L	4.F\	[>4.aa [<4.a\	.	[>2.c\	nos-	.
8c 8A/	.	.	.	.	.	.
8cJ 8A/	.	.	[	.	.	.
8C/L	4C\	4aa] 4a\]	.	.	.	.
8c 8A/	.	.	.	.	.	.
8cJ 8G/	8ryy	8bb- 8b-\	.	.	.	.
8F/L	4.F\	4.ccc 4.cc\	.	4.c\]	.	.
8c 8A/	.	.	.	.	.	.
8cJ 8A/	.	.	.	.	.	.
!	!	!	!	!LO:N:vis=4	!	!
8E-/L	4.E-\	4.ccc#X 4.cc\	.	4.c#X\	-tra	.
8A 8G/	.	.	.	.	.	.
8AJ 8G/	.	.	.	.	.	.
*v	*v	*	*	*	*	*
!!LO:LB:g=original
=42	=42	=42	=42	=42	=42
*tremolo	*	*	*	*	*
*^	*	*	*	*	*
8dL 8A 8F#X/	4D\	(>4.ddd [<4.dd\	.	[>4.d\	me-	.
8d 8A 8F#/	.	.	.	.	.	.
8dJ 8A 8F#/	8r	.	.	.	.	.
*v	*v	*	*	*	*	*
*	*tremolo	*	*	*	*
*^	*	*	*	*	*
8dL 8Bn 8G/	2.D\	4dd\])	.	4d\]	.	.
8d 8B 8G/	.	.	.	.	.	.
*	*	*Xtremolo	*	*	*	*
*	*	*8va	*	*	*	*
8dJ 8B 8G/	.	8ggg\	.	8d\	-di-	.
*	*	*Xtremolo	*	*	*	*
*	*	*tremolo	*	*	*	*
8dL 8c 8A/	.	4fff#X\	.	4.d\	-a-	.
8d 8c 8A/	.	.	.	.	.	.
8dJ 8c 8A/	.	8eeen\	.	.	.	.
*v	*v	*	*	*	*	*
*	*Xtremolo	*	*	*	*
*	*tremolo	*	*	*	*
*^	*	*	*	*	*
8dL 8A 8F#/	4.D\	4ddd\	.	4.d\	-trix	.
8d 8A 8F#/	.	.	.	.	.	.
8dJ 8A 8F#/	.	8ccc\	.	.	.	.
*v	*v	*	*	*	*	*
*	*Xtremolo	*	*	*	*
*	*X8va	*	*	*	*
=43	=43	=43	=43	=43	=43
*^	*	*	*	*	*
2.ryy	1.G	8bbn 8bn\	.	(>[>4.d\	nos-	.
.	.	8fL 8d/	.	.	.	.
.	.	8fJ 8d/	.	.	.	.
*	*	*tremolo	*	*	*	*
.	.	8fL 8d/	.	4d\]	.	.
.	.	8f 8d/	.	.	.	.
.	.	8fJ 8d/	.	8f\	.	.
*	*	*Xtremolo	*	*	*	*
*	*	*tremolo	*	*	*	*
2.B-X 2.C\	.	8gL 8en/	.	4en\	.	.
.	.	8g 8e/	.	.	.	.
.	.	8g 8e/	.	8d\)	.	.
.	.	8g 8e/	.	(>4c\	-tra	.
.	.	8g 8e/	.	.	.	.
.	.	8gJ 8e/	.	8B-\)	.	.
*v	*v	*	*	*	*	*
*	*Xtremolo	*	*	*	*
=44	=44	=44	=44	=44	=44
*	*tremolo	*	*	*	*
!	!	!	!LO:TX:a:t=P:problem=w tym takcie skreślenia głównego skryptora; pierwotnie zapisane i skreślone nuty 2A\ 4A\S i 8A\	!	!
4.F\	8aL 8e- 8c/	.	(>2.A\	Sanc-	.
.	8a 8e- 8c/	.	.	.	.
.	8a 8e- 8c/	.	.	.	.
4.F#X\	8a 8e- 8c/	.	.	.	.
.	8a 8e- 8c/	.	.	.	.
.	8aJ 8e- 8c/	.	.	.	.
*	*Xtremolo	*	*	*	*
*	*tremolo	*	*	*	*
4.G\	8b-L 8d 8B-/	.	4.B-\)	.	.
.	8b- 8d 8B-/	.	.	.	.
.	8b-J 8d 8B-/	.	.	.	.
*	*Xtremolo	*	*	*	*
*	*tremolo	*	*	*	*
4.D\	8f#XL 8B-/	.	4.F#X\	-ta	.
.	8f# 8B-/	.	.	.	.
.	8f#J 8B-/	.	.	.	.
*	*Xtremolo	*	*	*	*
!!LO:LB:g=original
=45	=45	=45	=45	=45	=45
*	*tremolo	*	*	*	*
4E-\	8aL 8e- 8B-/	.	[>4.A\	De-	.
.	8a 8e- 8B-/	.	.	.	.
8r	8aJ 8e- 8B-/	.	.	.	.
*	*Xtremolo	*	*	*	*
(>2.C/	8aL 8e- 8B-/	.	4A\]	.	.
.	8a 8e- 8B-/	.	.	.	.
.	8gJ 8e- 8B-/	.	8G\	-i	.
*	*tremolo	*	*	*	*
.	8gL 8e- 8c/	.	[>4.e-\	Ge-	.
.	8g 8e- 8c/	.	.	.	.
.	8gJ 8e- 8c/	.	.	.	.
*	*Xtremolo	*	*	*	*
*	*tremolo	*	*	*	*
4F\)	8aL 8e- 8c/	.	4e-\]	.	.
.	8a 8e- 8c/	.	.	.	.
8r	8aJ 8e- 8c/	.	8A\	-ni-	.
*Xtremolo	*Xtremolo	*	*	*	*
=46	=46	=46	=46	=46	=46
*^	*	*	*	*	*
[2.F/	8BB-\L	8b- 8d 8B-/	.	4B-\	-trix.	.
.	8BB-\	8ddL 8b-'\	.	.	.	.
.	8BB-\J	8ddJ 8b-'\	.	8r	.	.
*	*tremolo	*	*	*	*	*
.	8BB-\L	(>8ddL 8b-\	.	4r	.	.
.	8BB-\	8ee- 8cc\	.	.	.	.
.	8BB-\J	8eenJ 8cc#X\	.	8r	.	.
4.F/]	8BB-\L	8ffL 8dd\)	.	2.r	.	.
.	8BB-\	8gg 8ee-X'\	.	.	.	.
!	!	!LO:TX:b:i:t=dolcissimo.	!	!	!	!
.	8BB-\	8aaJ 8ff'\	.	.	.	.
4.F/	8BB-\	8bb-L 8gg'\	.	.	.	.
.	8BB-\	8ccc 8aa'\	.	.	.	.
.	8BB-\J	8dddJ 8bb-'\	.	.	.	.
*v	*v	*	*	*	*	*
=47	=47	=47	=47	=47	=47
*	*tremolo	*	*	*	*
*^	*	*	*	*	*
[>2.B- 2.G-X/	8BB-\L	[>4.eee- [<4.ccc\	.	1.r	.	.
.	8BB-\	.	.	.	.	.
.	8BB-\	.	.	.	.	.
.	8BB-\	8eee-]L 8ccc\]	.	.	.	.
.	8BB-\	8ddd 8bbn'\	.	.	.	.
.	8BB-\J	8ddd-XJ 8bb-X'\	.	.	.	.
*v	*v	*	*	*	*	*
*	*Xtremolo	*	*	*	*
*	*tremolo	*	*	*	*
*^	*	*	*	*	*
8B-] 8F/	8BB-\L	8cccL 8aa'\	.	.	.	.
8rA	8BB-\	8ccc-X 8aa-X'\	.	.	.	.
8rA	8BB-\	8bb-J 8gg'\	.	.	.	.
4rA	8BB-\	8aa-L 8ff#X'\	.	.	.	.
.	8BB-\	8aa-X 8ffn'\	.	.	.	.
8rA	8BB-\J	8gg-XJ 8ee-X'\	.	.	.	.
*v	*v	*	*	*	*	*
*	*Xtremolo	*	*	*	*
!!LO:LB:g=original
=48	=48	=48	=48	=48	=48
*	*Xtremolo	*	*	*	*
8BB-/L	8ff 8dd\	.	(>[>4.F\	Sanc-	.
8BB-/	8ddL 8f/	.	.	.	.
8BB-/	8ddJ 8f/	.	.	.	.
8BB-/	8ddL 8f/	.	8F\L]	.	.
8BB-/	8ff 8a/	.	8D\	.	.
8BB-/J	8ee-J 8g/	.	8E-\J	.	.
*	*Xtremolo	*	*	*	*
*	*tremolo	*	*	*	*
8BB-/L	8ddL 8f/	.	8F\L	.	.
8BB-/	8cc#X 8en/	.	8G\	.	.
8BB-/	8ccnJ 8e-X/	.	8A\J	.	.
8BB-/	8b-L 8d/	.	8B-\L	.	.
8BB-/	8a 8c/	.	8c\	.	.
8BB-/J	8gJ 8B-/	.	8d\J	.	.
*	*Xtremolo	*	*	*	*
=49	=49	=49	=49	=49	=49
*	*tremolo	*	*	*	*
*^	*	*	*	*	*
2.ryy	8BB-/L	(>4f 4e- 4A/	.	[>4.e-\)	.	.
.	8BB-/	.	.	.	.	.
.	8BB-/	[8a/	.	.	.	.
.	8BB-/	4cc 4a/])	.	8e-\L]	.	.
.	8BB-/	.	.	8d\J	-ta	.
.	8BB-/J	16r	.	8c\	.	.
*	*	*Xtremolo	*	*	*	*
.	.	16f/	.	.	.	.
*v	*v	*	*	*	*	*
*	*tremolo	*	*	*	*
*^	*	*	*	*	*
(<2.A>\	8BB-/L	(>4f 4e- 4A/	.	8d\L	De-	.
.	8BB-/	.	.	8c\J	.	.
.	8BB-/	8a/	.	8B-\	-i	.
.	8BB-/	4cc/)	.	8A\L	Ge-	.
.	8BB-/	.	.	8G\J	.	.
.	8BB-/J	16r	.	8F\	-ni-	.
*	*	*Xtremolo	*	*	*	*
!	!	!LO:TX:b:t=[coda]	!	!	!	!
.	.	16f/	.	.	.	.
*v	*v	*	*	*	*	*
=50	=50	=50	=50	=50	=50
*	*tremolo	*	*	*	*
*^	*	*	*	*	*
(<[>4.A-X^>/)	8BB-\L	[>4.dd [<4.b-\	.	[>4.F\	-trix	.
.	8BB-\	.	.	.	.	.
.	8BB-\	.	.	.	.	.
8A-/L]	8BB-\	8dd]L 8b-\]	.	4F\]	.	.
8G/	8BB-\	8ee- 8cc\	.	.	.	.
!	!	!	!LO:HP:b	!	!	!
8G-X/J	8BB-\J	8eenJ 8cc#X\	<	8r	.	.
*v	*v	*	*	*	*	*
*	*Xtremolo	*	*	*	*
*	*tremolo	*	*	*	*
*^	*	*	*	*	*
4.F/)	8BB-\L	8ffL 8dd\	.	4r	.	.
.	8BB-\	8gg 8ee\	.	.	.	.
.	8BB-\	8aaJ 8ff\	.	8r	.	.
4.B-/	8BB-\	8bb-L 8gg\	.	4r	.	.
.	8BB-\	8ccc 8aa\	[	.	.	.
.	8BB-\J	8dddJ 8bb-\	.	8r	.	.
*v	*v	*	*	*	*	*
*	*Xtremolo	*	*	*	*
!!LO:PB:g=original
=51	=51	=51	=51	=51	=51
*	*tremolo	*	*	*	*
*^	*	*	*	*	*
4.c-X 4.A-X/	8BB-\L	[>4.fff [>4.ddd\	.	1.r	.	.
.	8BB-\	.	.	.	.	.
.	8BB-\	.	.	.	.	.
4.B- 4.G/	8BB-\	8fff]L 8ddd\]	.	.	.	.
!	!	!	!LO:HP:b	!	!	!
.	8BB-\	8eee- 8ccc\	>	.	.	.
.	8BB-\J	8dddJ 8bb-\	.	.	.	.
*v	*v	*	*	*	*	*
*	*Xtremolo	*	*	*	*
*	*tremolo	*	*	*	*
*^	*	*	*	*	*
4.A- 4.F#X/	8BB-\L	8cccL 8aa\	.	.	.	.
.	8BB-\	8ccc-X 8aa-X\	.	.	.	.
.	8BB-\	8bb-J 8gg\	.	.	.	.
4.cn 4.An/	8BB-\	8aa-L 8ff#X\	.	.	.	.
.	8BB-\	8aa-X 8ffn\	]	.	.	.
.	8BB-\J	8gg-XJ 8ee-X\	.	.	.	.
*v	*v	*	*	*	*	*
*	*Xtremolo	*	*	*	*
=52	=52	=52	=52	=52	=52
*	*tremolo	*	*	*	*
*^	*	*	*	*	*
[>2.B-/	8BB-\L	8ff 8dd\	.	(>[>4.F\	Sanc-	.
*	*	*Xtremolo	*	*	*	*
.	8BB-\	8ddL 8f/	.	.	.	.
.	8BB-\	8ddJ 8f/	.	.	.	.
.	8BB-\	8ddL 8f/	.	8F\L]	.	.
.	8BB-\	8ff 8a/	.	8D\	.	.
.	8BB-\J	8ee-J 8g/	.	8E-\J	.	.
*v	*v	*	*	*	*	*
*	*Xtremolo	*	*	*	*
*	*	*	*	*	*
*^	*	*	*	*	*
4.B-/]	8BB-\L	8ddL 8f/	.	8F\L	.	.
.	8BB-\	8cc#X 8en/	.	8G\	.	.
.	8BB-\	8cc#J 8e-X/	.	8A\J	.	.
8F/L	8BB-\	8b-L 8d/	.	8B-\L	.	.
*v	*v	*	*	*	*	*
*	*Xtremolo	*	*	*	*
*^	*	*	*	*	*
8D/	8BB-\	8a 8c/	.	8c\)J	.	.
8BB-/J	8BB-\J	8gJ 8d/	.	8d\	-ta	.
!!LO:LB:g=original
=53	=53	=53	=53	=53	=53	=53
!	!	!	!	!LO:TX:t=P:problem=ten takt w partii głosu wokalnego skreślony przez i zapisany przez głównego skryptora w poprawionej wersji u dołu strony	!	!
*	*	*ped	*	*	*	*
4A/	4F 4FF\	4f 4e- 4c/	.	(<[>1e-;>	De-	.
4ryy	8r	8r	.	.	.	.
.	4r	4r	.	.	.	.
1ryy	.	.	.	.	.	.
.	8r	8r	.	.	.	.
!	!LO:N:vis=1	!	!	!	!	!
.	2.rD;>	1rb;>	.	.	.	.
.	.	.	.	8qqe-/)]L	.	.
.	.	.	.	8qqd/	.	.
.	.	.	.	8qqe-/	.	.
.	.	.	.	8qqBn/J	.	.
.	.	.	.	16qqd/	.	.
.	.	.	.	8qqc/L	.	.
.	.	.	.	8qqB/	.	.
.	.	.	.	8qqc/	.	.
.	.	.	.	8qqG#X/J	.	.
.	.	.	.	16qqB-X/	.	.
.	.	.	.	8qqA/L	.	.
.	.	.	.	8qqG#/	.	.
.	.	.	.	8qqA/	.	.
.	.	.	.	8qqEn/J)	.	.
.	.	.	.	8F\	-i	.
.	.	.	.	8r	.	.
.	.	.	.	8.A\	San-	.
.	.	.	.	16Gn\	-cta	.
*v	*v	*	*	*	*	*
2ryy	.	.	8.F\	De-	.
.	.	.	16E-X\K	-i	.
!	!	!	!LO:TX:t=P:problem=górna belka połączona z pierwszą przednutką	!	!
.	4ryy	.	8.D\	ge-	.
.	.	.	16qqE-/LL	.	.
.	.	.	16qqD/	.	.
.	.	.	16qqC/	.	.
!	!	!LO:DY:b	!	!	!
.	.	p	16qqD/	.	.
.	.	.	16qqE-/	.	.
!	!	!	!LO:TLX:t=P:problem=górna belka połączona z ostatnią przednutką	!	!
.	.	.	16qqC/JJ	.	.
.	.	.	16F;>\	-ni-	.
=54	=54	=54	=54	=54	=54
*	*tremolo	*	*	*	*
8qBBB-/	.	.	.	.	.
2.BB-\	8dL 8G/	.	[>1.BB-	-trix.	.
.	8d 8G/	.	.	.	.
.	8d 8G/	.	.	.	.
.	8d 8G/	.	.	.	.
.	8d 8G/	.	.	.	.
.	8dJ 8G/	.	.	.	.
*	*Xtremolo	*	*	*	*
*	*tremolo	*	*	*	*
4.D\	8dL 8G/	.	.	.	.
.	8d 8G/	.	.	.	.
.	8d 8G/	.	.	.	.
4.G\	8d 8G/	.	.	.	.
.	8d 8G/	.	.	.	.
.	8dJ 8G/	.	.	.	.
*	*Xtremolo	*	*	*	*
=55	=55	=55	=55	=55	=55
*^	*	*	*	*	*
8c#L 8B-/	(<2.E-\	(>2.gg 2.g/	.	4BB-/]	.	.
8c# 8B-/	.	.	.	.	.	.
8c# 8B-/	.	.	.	4r	.	.
8c# 8B-/	.	.	.	.	.	.
8c# 8B-/	.	.	.	1r	.	.
8c#J 8B-/	.	.	.	.	.	.
8dL 8B-/	4F\)	4.ff [<4.f/	.	.	.	.
8d 8B-/	.	.	.	.	.	.
8dJ 8B-/	8r	.	.	.	.	.
8e-L 8c#/	4.F\	4.a 4.f/]	.	.	.	.
8e- 8c#/	.	.	.	.	.	.
8e-J 8c#/	.	.	.	.	.	.
*v	*v	*	*	*	*	*
!!LO:LB:g=original
=56	=56	=56	=56	=56	=56
*	*^	*	*	*	*
*	*	*tremolo	*	*	*	*
(<2.BB-/	1.b-)	8dL 8B-\	.	1.r	.	.
.	.	8d 8B-\	.	.	.	.
.	.	8d 8B-\	.	.	.	.
.	.	8d 8B-\	.	.	.	.
.	.	8d 8B-\	.	.	.	.
.	.	8dJ 8B-\	.	.	.	.
4.GG/	.	8dL 8B-\	.	.	.	.
.	.	8d 8B-\	.	.	.	.
.	.	8d 8B-\	.	.	.	.
4.EEn/	.	8d 8B-\	.	.	.	.
.	.	8d 8B-\	.	.	.	.
.	.	8dJ 8B-\	.	.	.	.
*	*v	*v	*	*	*	*
=57	=57	=57	=57	=57	=57
*^	*	*	*	*	*
8F\L	2.FF\)	(>2.f 2.d/	.	1.r	.	.
8F\	.	.	.	.	.	.
8F\J	.	.	.	.	.	.
8F\L	.	.	.	.	.	.
8F\	.	.	.	.	.	.
!LO:TX:a:t=P:problem=w źródle łuk od 8F do 8A; nie wyświetla się ze względu na tremolo	!	!	!	!	!	!
(>8F\J	.	.	.	.	.	.
8A\L)	4ryy	4e- 4c/)	.	.	.	.
8G\	.	.	.	.	.	.
8F\J	2ryy	8r	.	.	.	.
8E-\L	.	4c 4F</	.	.	.	.
8D\	.	.	.	.	.	.
8C\J	.	8re	.	.	.	.
=58	=58	=58	=58	=58	=58	=58
2.B-\	2.BB-\	2.ryy	.	1.ryy	.	.
2.A-X 2.D/	2.BB- 2.DD\	2.f 2.B-/	.	.	.	.
=59	=59	=59	=59	=59	=59	=59
2.G/	2.E- 2.BB- 2.EE-\	2.b- 2.f/	.	1.ryy	.	.
2.B- 2.G-X/	2.E-\	2.cc 2.an 2.c/	.	.	.	.
*v	*v	*	*	*	*	*
=60	=60	=60	=60	=60	=60
!LO:TX:b:i:t=Moniuszko	!	!	!	!	!
1.B- 1.F 1.BB-;>	1.dd 1.b- 1.f 1.d;>	.	1.r;>	.	.
==	==	==	==	==	==
*-	*-	*-	*-	*-	*-
!!!system-decoration: {(s1)(s2,s3)}
!!!RDF**kern: > = above
!!!RDF**kern: < = below
!!!EED: Antoni Szymański
!!!EEV: 2021-04-16
!!!ENC: Anastazja Marusiak
!!!END: 05-04-2021
